X: 4080
T: The BOYS OF OUR TOWN
R: Strathspey.
%R: strathspey
B: James Kerr "Merry Melodies" v.4 p.11 #80
Z: 2016 John Chambers <jc:trillian.mit.edu>
M: C
L: 1/8
K: D
|:\
vd<d B>d A>FD>F | G<B A>F E2-EA |\
d<d B>d A>FD>F | G<B F>E D2-DA ::\
d>ef>g a>fd>c | B<B g>f e2-ef |\
d<d B>d A>FD>F | G<B F>E D2-DA :|

%%sep 1 1 500
%%sep 1 1 500

